X: 77
T: Paddy on the Railroad
N: AKA the Merry Blacksmith
B: Ryan #48, 1883
B: NEFR #77, 1985
R: reel
Z: John Chambers, Terry Traub (separate but nearly identical transcriptions and chords)
M: C|
L: 1/8
K: D
fe \
| "D"d2 dA BA FA | Ad dA BA FA | AB de "(Bm)"f2 ed | "Em"Be ed "A7"eg fe |
| "D"d2 dA BA FA | AB dA BA FA | AB de "A7"fd ec | "D"dB AF D2 :|
|: fg \
| "D"ab ag f2 fe | d2 dA BA FA | "D"AB de "(Bm)"f2 ed | "Em"B2 ed "A7"ef ge |
| "D"ab ag f2 fe | d2 dA BA FA | AB de "A7"fd ec | "D"dB AF D2 :|


